icons/white/spire_mobile.svg

<?xml version="1.0" encoding="UTF-8"?><svg id="a" xmlns="http://www.w3.org/2000/svg" viewBox="0 0 48 48"><defs><style>.b{fill:none;stroke:#fff;stroke-linecap:round;stroke-linejoin:round;}</style></defs><path class="b" d="m40.5,5.5H7.5c-1.1046,0-2,.8954-2,2h0v33c0,1.1046.8954,2,2,2h33c1.1046,0,2-.8954,2-2V7.5c0-1.1046-.8954-2-2-2Zm-13.9964,13.8283l-3.7072-3.7072m3.7072,0l-3.7072,3.7072m6.2136-1.8536h-8.72m4.36-6.2363v9.8286m6.3668,5.1088l2.6,2.7m-5.3,0v-8h2.6c1.5,0,2.7,1.2,2.7,2.7s-1.2,2.7-2.7,2.7h-2.6m-12.6335,2.6v-8h2.6c1.5,0,2.7,1.2,2.7,2.7s-1.2,2.7-2.7,2.7h-2.6m20.4003-5.4v8m0-4h2.6m-2.6-4h4m-4,8h4m-32.067-.9c.5.6,1.1.9,2,.9h1.2c1.1,0,2-.9,2-2h0c0-1.1-.9-2-2-2h-1.3c-1.1,0-2-.9-2-2h0c0-1.1.9-2,2-2h1.2c.9,0,1.5.2,2,.9m11.5335-.9v8m-1.2-8h2.4m-2.4,8h2.4"/></svg>

<?xml version="1.0" encoding="UTF-8"?><svg id="b" xmlns="http://www.w3.org/2000/svg" viewBox="0 0 48 48"><defs><style>.c{fill:none;stroke:#fff;stroke-linecap:round;stroke-linejoin:round;}</style></defs><path class="c" d="M26.5036,19.3283l-3.7072-3.7072M26.5036,15.6212l-3.7072,3.7072M29.01,17.4748h-8.72M24.65,11.2384v9.8286M31.0168,26.1759l2.6,2.7M28.3168,28.8759v-8h2.6c1.5,0,2.7,1.2,2.7,2.7s-1.2,2.7-2.7,2.7h-2.6M15.6832,28.8759v-8h2.6c1.5,0,2.7,1.2,2.7,2.7s-1.2,2.7-2.7,2.7h-2.6M36.0835,20.8759v8M36.0835,24.8759h2.6M36.0835,20.8759h4M36.0835,28.8759h4M8.0165,27.9759c.5.6,1.1.9,2,.9h1.2c1.1,0,2-.9,2-2h0c0-1.1-.9-2-2-2h-1.3c-1.1,0-2-.9-2-2h0c0-1.1.9-2,2-2h1.2c.9,0,1.5.2,2,.9M24.65,20.8759v8M23.45,20.8759h2.4M23.45,28.8758h2.4"/><rect class="c" x="5.5" y="5.5" width="37" height="37" rx="4" ry="4"/></svg>
